X:1
T:24 Arie antiche
T:Nel cor più non mi sento
T:Nel cor più non mi sento
T:Arietta (24 Arie antiche)
T:Giovanni Paisiello (1740-1816) Alessandro Parisotti (1853-1913)
T:Low voices Dell'opera  La Molinara Giuseppe Palomba (a 1765 - d 1825)
T:Creative Commons copyright waiver (CC0 1.0 Universal) 
T:Creative Commons copyright waiver (CC0 1.0 Universal) 
C:Giovanni Paisiello (1740-1816)
Z:Giuseppe Palomba (<1765 - >1825)
Z:Creative Commons copyright waiver (CC0 1.0 Universal)
Z:
%%score ( 1 2 ) { 3 | 4 }
L:1/8
Q:3/8=58
M:6/8
K:Eb
V:1 treble nm="Alto"
V:2 treble 
V:3 treble nm="Piano"
V:4 bass 
V:1
"^Andantino" z |[Q:3/8=44] z6 | z6 | z6 | z6 | z6 | z6 | z6 |"^Voice" z3 z2!p! B | G2 G F2 F | %10
w: ||||||||Nel|cor più non mi|
 F2 E z z E | B2 (A/4G/4F/4E/4) (cd) e | F2 z z2!<(! F | G2 G[Q:3/8=38] (A{BA}G) A | %14
w: sen- to bril-|lar la _ _   gio- * ven-|tù; ca-|gion del mio _ tor-|
 (B2 =B)!<)! !fermata!c2 c |[Q:3/8=44] E2 E (G/F/E) F | E2 z z2[Q:3/8=48] B | B2 =E c2 B | %18
w: men- * to, a-|mor, sei col- * * pa-|tu. Mi|piz- zi- chi, mi|
 B/ A/ A z z2 A | (AD) D B2 A | A/ G/ G z[Q:3/8=44] z2 E |[Q:3/8=40] =A2 A (A{BA}G) A | %22
w: stuz- zi- chi, mi|pun- * gi- chi, mi|mas- ti- chi che|co- saè que- * stoahi-|
 B3- !fermata!B2 B |[Q:3/8=44] (B_A) A (AG) G | (G F2) z z!p!!<(! F | G2 G (B/A/G) A | %26
w: mè? _ pie-|tà, _ pie- tà, _ pie-|tà! _ a-|mor- reèun cer- * * to|
 (B2 =B)!<)! !fermata!d>c x[Q:3/8=20] (C/F/) |"^risoluto"[Q:3/8=46] E2 E (F{GF}E) F | %28
w: che, _ _ _ che *|di- spe- rar- * mi|
[Q:3/8=48] E2 z z3 | z6 |[Q:3/8=44] z6 |] %31
w: fa.|||
V:2
 x | x6 | x6 | x6 | x6 | x6 | x6 | x6 | x6 | x6 | x6 | x6 | x6 | x6 | x6 | x6 | x6 | x6 | x6 | x6 | %20
 x6 | x6 | x6 | x6 | x6 | x6 | x6{_BAGA} x | x6 | x6 | x6 | x6 |] %31
V:3
 B, | (B/4A/4G/) z z (A/4G/4F/) z z | (G/4F/4E/) z z z2 E | (G/4A/4B/) z z (A/4B/4c/) z z | %4
 (F/4E/4D/) z z z2 B, | (G/4F/4E/) z"_cresc." z (A/4G/4F/) z z | (B/4A/4G/) z z .c.d.e | %7
 E3 (G/F/EF) |!f! E [G,E][G,E] [G,E]2 z |!p! B,EG A,DF | G,B,E G,B,E | G,B,E A,CE | F,B,D F,B,D | %13
!<(! G,B,E A,DF | B,EG!<)! !fermata![CEA]2 z | G,B,E A,B,D | [G,E][G,E][G,E] [G,E]2 z | %17
 G,B,=E G,B,E | A,CF A,CF | F,A,D F,A,D | G,B,E G,B,E | [E=A]6 | [DB]3- !fermata![DB]2 z | %23
 B,FA B,EG | B,DF B,DF |!<(! B,EG B,FA | B,EG!<)! !fermata![CA]2 x z | G,B,E A,B,D | %28
 [G,E] z{AGF} .G !>!AF{edc}.d | !>!eB{c'b=a}g .d'/.c'/.b/._a/.g/.f/ | e!f! [G,E][G,E] [G,E]2 z |] %31
V:4
"^dolce"!mp! z | E,G,B, B,,F,B, | E,G,B, E,G,B, | E,G,B, A,,E,A, | B,,D,F, B,,D,F, | %5
 E,G,B, E,F,A, | E,G,B, [A,,E,A,]z[=A,,_G,] | B,,E,=G, B,,D,_A, | [E,G,] B,,G,, E,,2 z | %9
 E,2 z B,,2 z | E,,2 z E,2 z | E,,2 z A,,2 z | B,,2 z B,,2 z | [E,,E,]2 z [E,,E,]2 z | %14
 [E,,E,]3 !fermata!A,,2 z | B,,2 z B,,,2 z | E,,G,,B,, E,,2 z | C,2 z C,2 z | %18
 [F,,F,]2 z [F,,F,]2 z | B,,2 z B,,2 z | [E,,E,]2 z [E,,E,]2 z | [C,,C,]6 | %22
 [B,,,B,,]3- !fermata![B,,,B,,]2 z | D,2 z E,2 z | B,,2 z B,,2 z | [E,,E,]2 z [E,,E,]2 z | %26
 [E,,E,]2 z !fermata![A,,,A,,]2 x z | B,,2 z B,,,2 z | E,,G,,B,, F,,A,,B,, | G,,B,,E, B,,F,A, | %30
 [E,G,] B,,G,, E,,2 z |] %31

